X:1

T:Devonshire Go, The

M:6/8

L:1/8

R:Jig

B:WM Cahusac – Annual Collection of Twenty Four Favorite Country Dances for 1809, No. 15 (London)

N:”With proper Directions to each Dance as they are performed at

N:Court, Bath, and all Public Assemblies.”

Z:Transcribed and edited by Flynn Titford-Mock, 2007

Z:abc’s:AK/Fiddler’s Companion

K:Bb

b2f dBd|f2d f2d|b2f dBd|c2A c2A|b2f dBd|f2d f2d|gfe dcB|ABG FED:|

|:DFB DFB|EGB EGB|Ace ecA|Bdf fdB|DFB DFB|EGB EGB|Ace ecA|B3 b3:||

 

DEVONSHIRE HORNPIPE, THE. English? Irish?, Hornpipe. G Major. Standard tuning. AABB. Source for notated version: copied from Wilson’s Companion to the Ballroom (1816) [O’Neill]. O’Neill (Waifs and Strays of Gaelic Melody), 1922; No. 318.

